OBS Studio/Fluent Dark Grey/cogs.svg

<svg viewBox="0 64 1024 960" xmlns="http://www.w3.org/2000/svg"><path d="m1024 224c0 8.667-3.17 16.167-9.5 22.5s-13.83 9.5-22.5 9.5h-163c-3.667 18.333-10.417 35.333-20.25 51s-21.75 29.167-35.75 40.5-29.667 20.25-47 26.75-35.333 9.75-54 9.75-36.667-3.25-54-9.75-33-15.417-47-26.75-25.917-24.833-35.75-40.5-16.583-32.667-20.25-51h-483c-8.6667 0-16.167-3.167-22.5-9.5-6.3333-6.333-9.5-13.833-9.5-22.5s3.1667-16.167 9.5-22.5c6.3333-6.333 13.833-9.5 22.5-9.5h483c3.667-18.333 10.417-35.333 20.25-51s21.75-29.167 35.75-40.5c14-11.333 29.667-20.25 47-26.75 17.333-6.4999 35.333-9.7499 54-9.75 18.667 1e-4 36.667 3.2501 54 9.75 17.333 6.5001 33 15.417 47 26.75 14 11.333 25.917 24.833 35.75 40.5s16.583 32.667 20.25 51h163c8.67 0 16.17 3.167 22.5 9.5s9.5 13.833 9.5 22.5zm-256 0c0-13-2.5-25.333-7.5-37s-11.917-21.917-20.75-30.75-19.083-15.75-30.75-20.75-24-7.5-37-7.5-25.333 2.5-37 7.5-21.917 11.917-30.75 20.75-15.75 19.083-20.75 30.75-7.5 24-7.5 37 2.5 25.333 7.5 37 11.917 21.917 20.75 30.75 19.083 15.75 30.75 20.75 24 7.5 37 7.5 25.333-2.5 37-7.5 21.917-11.917 30.75-20.75 15.75-19.083 20.75-30.75 7.5-24 7.5-37zm224 576c0 26.333-2 52.5-6 78.5s-10.667 51.5-20 76.5c-2 5.667-4.583 12.417-7.75 20.25s-7 15.417-11.5 22.75c-4.5 7.33-9.583 13.5-15.25 18.5s-12.167 7.5-19.5 7.5c-9 0-16.583-3.08-22.75-9.25s-9.25-13.75-9.25-22.75c0-2.333 0.25-4.833 0.75-7.5s1.25-5 2.25-7c4.333-7.667 8.5-14.833 12.5-21.5s7.5-14.333 10.5-23c7.667-21.333 13.25-43.167 16.75-65.5s5.25-44.833 5.25-67.5-1.75-45.167-5.25-67.5-9.083-44.167-16.75-65.5c-4.667-13.333-11.167-26.667-19.5-40-2-3.333-3.583-6.25-4.75-8.75s-1.75-5.917-1.75-10.25c0-9 3.083-16.583 9.25-22.75s13.75-9.25 22.75-9.25c7.333 0 13.833 2.5 19.5 7.5s10.75 11.167 15.25 18.5 8.333 14.917 11.5 22.75 5.75 14.583 7.75 20.25c9.333 25 16 50.5 20 76.5s6 52.167 6 78.5zm-288-192v384c0 8.67-3.25 16.17-9.75 22.5s-14.083 9.5-22.75 9.5-16.167-3.17-22.5-9.5l-118.5-118.5h-50.5c-8.667 0-16.167-3.167-22.5-9.5s-9.5-13.833-9.5-22.5v-128c0-8.667 3.167-16.167 9.5-22.5s13.833-9.5 22.5-9.5h50.5l118.5-118.5c6.333-6.333 13.833-9.5 22.5-9.5s16.25 3.167 22.75 9.5 9.75 13.833 9.75 22.5zm160 192c0 10.667-0.917 22.25-2.75 34.75s-4.333 25.167-7.5 38-6.917 25.333-11.25 37.5-9 22.917-14 32.25c-2.667 5.333-6.583 9.583-11.75 12.75s-10.75 4.75-16.75 4.75c-8.667 0-16.167-3.167-22.5-9.5s-9.5-13.833-9.5-22.5c0-3 0.75-6.75 2.25-11.25s3.167-9.167 5-14 3.75-9.5 5.75-14 3.5-8.083 4.5-10.75c4.667-12 8.25-24.833 10.75-38.5s3.75-26.833 3.75-39.5c0-13.333-1.417-26.5-4.25-39.5s-6.25-25.833-10.25-38.5c-1-3-2.5-6.833-4.5-11.5s-3.917-9.333-5.75-14-3.5-9.25-5-13.75-2.25-8.083-2.25-10.75c0-8.667 3.167-16.167 9.5-22.5s13.833-9.5 22.5-9.5c6 0 11.583 1.583 16.75 4.75s9.083 7.417 11.75 12.75c5 9.333 9.667 20.083 14 32.25s8.083 24.667 11.25 37.5 5.667 25.583 7.5 38.25 2.75 24.167 2.75 34.5zm-512-32c8.667 0 16.167 3.167 22.5 9.5s9.5 13.833 9.5 22.5-3.167 16.167-9.5 22.5-13.833 9.5-22.5 9.5h-320c-8.6667 0-16.167-3.167-22.5-9.5-6.3333-6.333-9.5-13.833-9.5-22.5s3.1667-16.167 9.5-22.5c6.3333-6.333 13.833-9.5 22.5-9.5z" fill="#fff"></path></svg>

<!-- Exported by Character Map UWP -->
<svg height="100%" viewBox="0 64 1024 960" width="100%" xmlns="http://www.w3.org/2000/svg" xmlns:xlink="http://www.w3.org/1999/xlink">
  <path d="M1024,224C1024,232.667 1020.83,240.167 1014.5,246.5C1008.17,252.833 1000.67,256 992,256L829,256C825.333,274.333 818.583,291.333 808.75,307C798.917,322.667 787,336.167 773,347.5C759,358.833 743.333,367.75 726,374.25C708.667,380.75 690.667,384 672,384C653.333,384 635.333,380.75 618,374.25C600.667,367.75 585,358.833 571,347.5C557,336.167 545.083,322.667 535.25,307C525.417,291.333 518.667,274.333 515,256L32,256C23.3333,256 15.8333,252.833 9.5,246.5C3.16667,240.167 0,232.667 0,224C0,215.333 3.16667,207.833 9.5,201.5C15.8333,195.167 23.3333,192 32,192L515,192C518.667,173.667 525.417,156.667 535.25,141C545.083,125.333 557,111.833 571,100.5C585,89.1667 600.667,80.2501 618,73.75C635.333,67.2501 653.333,64.0001 672,64C690.667,64.0001 708.667,67.2501 726,73.75C743.333,80.2501 759,89.1667 773,100.5C787,111.833 798.917,125.333 808.75,141C818.583,156.667 825.333,173.667 829,192L992,192C1000.67,192 1008.17,195.167 1014.5,201.5C1020.83,207.833 1024,215.333 1024,224ZM768,224C768,211 765.5,198.667 760.5,187C755.5,175.333 748.583,165.083 739.75,156.25C730.917,147.417 720.667,140.5 709,135.5C697.333,130.5 685,128 672,128C659,128 646.667,130.5 635,135.5C623.333,140.5 613.083,147.417 604.25,156.25C595.417,165.083 588.5,175.333 583.5,187C578.5,198.667 576,211 576,224C576,237 578.5,249.333 583.5,261C588.5,272.667 595.417,282.917 604.25,291.75C613.083,300.583 623.333,307.5 635,312.5C646.667,317.5 659,320 672,320C685,320 697.333,317.5 709,312.5C720.667,307.5 730.917,300.583 739.75,291.75C748.583,282.917 755.5,272.667 760.5,261C765.5,249.333 768,237 768,224ZM992,800C992,826.333 990,852.5 986,878.5C982,904.5 975.333,930 966,955C964,960.667 961.417,967.417 958.25,975.25C955.083,983.083 951.25,990.667 946.75,998C942.25,1005.33 937.167,1011.5 931.5,1016.5C925.833,1021.5 919.333,1024 912,1024C903,1024 895.417,1020.92 889.25,1014.75C883.083,1008.58 880,1001 880,992C880,989.667 880.25,987.167 880.75,984.5C881.25,981.833 882,979.5 883,977.5C887.333,969.833 891.5,962.667 895.5,956C899.5,949.333 903,941.667 906,933C913.667,911.667 919.25,889.833 922.75,867.5C926.25,845.167 928,822.667 928,800C928,777.333 926.25,754.833 922.75,732.5C919.25,710.167 913.667,688.333 906,667C901.333,653.667 894.833,640.333 886.5,627C884.5,623.667 882.917,620.75 881.75,618.25C880.583,615.75 880,612.333 880,608C880,599 883.083,591.417 889.25,585.25C895.417,579.083 903,576 912,576C919.333,576 925.833,578.5 931.5,583.5C937.167,588.5 942.25,594.667 946.75,602C951.25,609.333 955.083,616.917 958.25,624.75C961.417,632.583 964,639.333 966,645C975.333,670 982,695.5 986,721.5C990,747.5 992,773.667 992,800ZM704,608L704,992C704,1000.67 700.75,1008.17 694.25,1014.5C687.75,1020.83 680.167,1024 671.5,1024C662.833,1024 655.333,1020.83 649,1014.5L530.5,896L480,896C471.333,896 463.833,892.833 457.5,886.5C451.167,880.167 448,872.667 448,864L448,736C448,727.333 451.167,719.833 457.5,713.5C463.833,707.167 471.333,704 480,704L530.5,704L649,585.5C655.333,579.167 662.833,576 671.5,576C680.167,576 687.75,579.167 694.25,585.5C700.75,591.833 704,599.333 704,608ZM864,800C864,810.667 863.083,822.25 861.25,834.75C859.417,847.25 856.917,859.917 853.75,872.75C850.583,885.583 846.833,898.083 842.5,910.25C838.167,922.417 833.5,933.167 828.5,942.5C825.833,947.833 821.917,952.083 816.75,955.25C811.583,958.417 806,960 800,960C791.333,960 783.833,956.833 777.5,950.5C771.167,944.167 768,936.667 768,928C768,925 768.75,921.25 770.25,916.75C771.75,912.25 773.417,907.583 775.25,902.75C777.083,897.917 779,893.25 781,888.75C783,884.25 784.5,880.667 785.5,878C790.167,866 793.75,853.167 796.25,839.5C798.75,825.833 800,812.667 800,800C800,786.667 798.583,773.5 795.75,760.5C792.917,747.5 789.5,734.667 785.5,722C784.5,719 783,715.167 781,710.5C779,705.833 777.083,701.167 775.25,696.5C773.417,691.833 771.75,687.25 770.25,682.75C768.75,678.25 768,674.667 768,672C768,663.333 771.167,655.833 777.5,649.5C783.833,643.167 791.333,640 800,640C806,640 811.583,641.583 816.75,644.75C821.917,647.917 825.833,652.167 828.5,657.5C833.5,666.833 838.167,677.583 842.5,689.75C846.833,701.917 850.583,714.417 853.75,727.25C856.917,740.083 859.417,752.833 861.25,765.5C863.083,778.167 864,789.667 864,800ZM352,768C360.667,768 368.167,771.167 374.5,777.5C380.833,783.833 384,791.333 384,800C384,808.667 380.833,816.167 374.5,822.5C368.167,828.833 360.667,832 352,832L32,832C23.3333,832 15.8333,828.833 9.5,822.5C3.16667,816.167 0,808.667 0,800C0,791.333 3.16667,783.833 9.5,777.5C15.8333,771.167 23.3333,768 32,768Z" fill="#FFFFFF" fill-opacity="1">
  </path>
</svg>
